X:61
T:Sleepers Awake "Wachet Auf" 
C:JS Bach - (BWV 140)
N:TablEdited by Wendy Anthony Nov 2004
L:1/8
Q:1/4=80
M:4/4
K:Eb
z6 B,2 | E/F/G GF AG B,A, | G/E/F A,G, DE zB, | E/F/G GF AG B,A, | G/E/F A,G, DE zB | 
B2 A/G/F/E/ F/E/D/C/ B,C/D/ | E/F/G/F/ A/G/F/E/ GF2B, | G=A zB E/D/E2C | =AB zc E/D/E2e | 
d/c/B3/2=A/B3/2A/G/F/ E/D/C/B,/ | C/D/E3/2D/E3/2=A/B/c/ B/A/G/F/ | BF DC B,/E/D/C/ DB, | 
G,2 =A,G,/A,/ B,3B, | E/F/G GF AG B,A, | G/E/F A,G, DE zB, | E/F/G GF AG B,A, | 
G/E/F A,G, DE zB | B2 A/G/F/E/ F/E/D/C/ B,C/D/ | E/F/G/F/ A/G/F/E/ GF zE | cd ze A/G/A2c | 
de zf A/G/A2F | G/F/E3/2D/E3/2_d/c/B/ A/G/F/E/ | F/G/A3/2G/A3/2D/E/F/ E/D/C/B,/ | 
BE G/F/E/D/ C/A/G/F/ GE | C2 DC/D/ [E4G,4] | z8 | 
 

